emblems/symbolic/emblem-symbolic-link-symbolic.svg

<?xml version="1.0" encoding="UTF-8" standalone="no"?>
<svg
   xmlns:dc="http://purl.org/dc/elements/1.1/"
   xmlns:cc="http://creativecommons.org/ns#"
   xmlns:rdf="http://www.w3.org/1999/02/22-rdf-syntax-ns#"
   xmlns:svg="http://www.w3.org/2000/svg"
   xmlns="http://www.w3.org/2000/svg"
   id="svg6"
   version="1.1"
   width="16"
   height="16">
  <metadata
     id="metadata12">
    <rdf:RDF>
      <cc:Work
         rdf:about="">
        <dc:format>image/svg+xml</dc:format>
        <dc:type
           rdf:resource="http://purl.org/dc/dcmitype/StillImage" />
        <dc:title></dc:title>
      </cc:Work>
    </rdf:RDF>
  </metadata>
  <defs
     id="defs10" />
  <path
     id="path873-5"
     style="fill:#555761;stroke:none;stroke-width:4;stroke-linecap:round;stroke-linejoin:round;stop-color:#000000"
     d="m 7.2268742,14.50586 c 0.431218,0 0.777344,-0.334319 0.777344,-0.75 v -2.746094 h 0.9531247 c 3.3606291,0 5.0974151,-2.1697261 5.0410151,-4.839844 V 4.501953 C 13.998358,4.178277 13.822116,4 13.488593,4 13.209324,4.000001 13.000311,4.224595 13.000311,4.501953 12.963251,6.337661 11.266688,8.00586 9.2503109,8.00586 H 8.0042182 v -2.75 c 0,-0.41568 -0.346126,-0.750001 -0.777344,-0.750001 -0.23241,0 -0.439647,0.09725 -0.582032,0.251954 l -4.43164,4.2246089 c -0.13161,0.13438 -0.212891,0.3142806 -0.212891,0.5136726 0,0.199392 0.08128,0.379291 0.212891,0.5136715 l 4.43164,4.244141 c 0.142385,0.15471 0.349622,0.251953 0.582032,0.251953 z" />
</svg>

<svg
        xmlns='http://www.w3.org/2000/svg'
        xmlns:svg='http://www.w3.org/2000/svg'
        id='svg6'
        width='16'
        height='16'>
  <path
          id='path873-5'
          fill='url(#gpa:foreground) #555761'
          fill-opacity='1'
          fill-rule='nonzero'
          stroke='none'
          stroke-width='4'
          stroke-linecap='round'
          stroke-linejoin='round'
          d='M 7.22687 14.5059 C 7.65809 14.5059, 8.00422 14.1715, 8.00422 13.7559 L 8.00422 11.0098 L 8.95734 11.0098 C 12.318 11.0098, 14.0548 8.84004, 13.9984 6.16992 L 13.9984 4.50195 C 13.9984 4.17828, 13.8221 4, 13.4886 4 C 13.2093 4, 13.0003 4.2246, 13.0003 4.50195 C 12.9633 6.33766, 11.2667 8.00586, 9.25031 8.00586 L 8.00422 8.00586 L 8.00422 5.25586 C 8.00422 4.84018, 7.65809 4.50586, 7.22687 4.50586 C 6.99446 4.50586, 6.78723 4.60311, 6.64484 4.75781 L 2.2132 8.98242 C 2.08159 9.1168, 2.00031 9.2967, 2.00031 9.49609 C 2.00031 9.69549, 2.08159 9.87539, 2.2132 10.0098 L 6.64484 14.2539 C 6.78723 14.4086, 6.99446 14.5059, 7.22687 14.5059 Z'
          class='foreground foreground-fill'>
  </path>
</svg>
